X:1
T:B. D. Ackley
T:E. E. Hewitt
T:Watching for the King's Return
%%score { ( 1 2 ) | ( 3 4 ) }
L:1/8
M:4/4
K:Eb
V:1 treble 
V:2 treble 
V:3 bass 
V:4 bass 
V:1
{/x} GG^FG c2 B2 | BAAG A4 | d>cBA G2 c2 | B4- B4 | GG^FG c2 B2 | cF=EF d4 | e=A^GA d2 c2 | %7
w: O, to be more faith\- ful,|work\- ing day by day,|Watch\- ing for the King's re\-|turn! *|Pray\- ing for the king\- dom,|Liv\- ing as we pray,|Watch\- ing for the King's re\-|
w: O, to be more lov\- ing,|truth\- ful, brave and pure,|Watch\- ing for the King's re\-|turn! *|Seek\- ing heav\- 'nly treas\- ures,|rich\- es that en\- dure,||
w: O, to res\- cue oth\- ers|from the night of sin,|Watch\- ing for the King's re\-|turn! *|To our Sav\- ior's glo\- ry,|bright\- est stars to win,||
w: Trust\- ing in His mer\- cy,|joy\- ful in His grace,|Watch\- ing for the King's re\-|turn! *|Till we see His beau\- ty,|meet\- ing face to face,||
"^rit." B6-[Q:1/4=112][Q:1/4=96][Q:1/4=72][Q:1/4=60][Q:1/4=48]"^Largo" !fermata!B2 | %8
w: turn. *|
w: |
w: |
w: |
"^Chorus"[Q:1/4=120]"^Allegretto" B4 G4 | c2 e6 | d>cBA G2 c2 | B4- B4 | B4 G4 | c2 e6 | %14
w: Watch\- ing|ev\- er,|Watch\- ing for the King's re\-|turn; *|Watch\- ing|ev\- er,|
w: ||||||
w: ||||||
w: ||||||
 dddB c2 d2 | e4- e2 z2 |] %16
w: Watch\- ing for the King's re\-|turn. *|
w: ||
w: ||
w: ||
V:2
 EEEE E2 E2 | EDD^C D4 | A>AGF E2 E2 | E4- E4 | EEEE E2 E2 | DD^CD F4 | FFFF F2 E2 | %7
w: |||||||
 D2"^Moderato" D"^Andante"E"^Maestoso" F"^Ballad"G A2 | G4 E4 | A2 A6 | A>AGF E2 ^F2 | G4- G4 | %12
w: * for the King's re- turn|||||
 G4 E4 | A2 A6 | AAAA A2 A2 | GGAA G2 z2 |] %16
w: |||* the King's re- turn.|
V:3
 B,B,=A,B, _A,2 G,2 | G,F,F,=E, F,4 | B,>DEB, B,2 A,2 | G,4- G,4 | B,B,=A,B, _A,2 G,2 | %5
w: |||||
 F,B,B,B, B,4 | =A,C=B,C _B,2 A,2 | B,2 B,C DE F2 | E2 E2 B,2 E2 | E2 C2 C2 C2 | F>DEB, B,2 =A,2 | %11
w: |||Ev- er watch- ing,|Watch- ing ev- er,||
 B,4- B,4 | E2 E2 B,2 E2 | E2 C2 C2 C2 | FFFD C2 B,2 | B,B,CC B,2 z2 |] %16
w: |Ev- er watch- ing,|Watch- ing ev- er,|||
V:4
 E,E,E,E, E,2 E,2 | B,,B,,B,,B,, B,,4 | B,,>B,, B,,2 B,,2 E,2 | E,4- E,4 | E,E,E,E, E,2 E,2 | %5
 B,,B,,B,,B,, B,,4 | F,F,F,F, F,2 F,2 | [B,,-B,]6 !fermata![B,,B,]2 | E,2 E,2 E,2 E,2 | %9
 A,2 A,2 A,2 A,2 | B,>B,B,B,, E,2 E,2 | E,4- E,4 | E,2 E,2 E,2 E,2 | A,2 A,2 A,2 A,2 | %14
 B,B,B,B, B,2 B,,2 | E,4- E,2 z2 |] %16

